Sources/FrostedUI/Resources/Icons.xcassets/checkmarkShield32.imageset/checkmark-shield-32.svg

<svg
  width="32"
  height="32"
  viewBox="0 0 32 32"
  fill="none"
  xmlns="http://www.w3.org/2000/svg"
  data-fui-icon="true"
>
  <path
    d="M14.9565 2.58907C12.5758 5.86364 8.15762 7.59847 5.81021 8.32613C4.90793 8.60582 4.25 9.42563 4.25 10.3703V12C4.25 19.8381 8.56524 27.7855 16.0368 30.1544C16.2325 30.2165 16.3894 30.25 16.5 30.25C16.6106 30.25 16.7675 30.2165 16.9632 30.1544C24.4348 27.7855 28.75 19.8381 28.75 12V10.3703C28.75 9.42563 28.0921 8.60582 27.1898 8.32613C24.8424 7.59847 20.4242 5.86364 18.0435 2.58907C17.6799 2.08891 17.1184 1.75 16.5 1.75C15.8816 1.75 15.3201 2.08891 14.9565 2.58907Z"
    stroke="currentColor"
    stroke-width="1.5"
    stroke-linecap="round"
    stroke-linejoin="round"
  />
  <path
    d="M10.75 16.25L15 20.75L23.25 12.25"
    stroke="currentColor"
    stroke-width="1.5"
    stroke-linecap="round"
    stroke-linejoin="round"
  />
</svg>

<svg xmlns="http://www.w3.org/2000/svg" width="32" height="32" fill="none" data-fui-icon="true" viewBox="0 0 32 32"><path stroke="currentColor" stroke-linecap="round" stroke-linejoin="round" stroke-width="1.5" d="M14.957 2.59c-2.381 3.274-6.8 5.008-9.147 5.736-.902.28-1.56 1.1-1.56 2.044V12c0 7.838 4.315 15.785 11.787 18.154q.295.095.463.096c.11 0 .267-.034.463-.096C24.435 27.785 28.75 19.838 28.75 12v-1.63c0-.944-.658-1.764-1.56-2.044-2.348-.728-6.766-2.462-9.146-5.737-.364-.5-.926-.839-1.544-.839s-1.18.339-1.543.84"/><path stroke="currentColor" stroke-linecap="round" stroke-linejoin="round" stroke-width="1.5" d="m10.75 16.25 4.25 4.5 8.25-8.5"/></svg>
